X: 179
T: Nishenshang ba wodexin caosui
L: 1/8
M: 3/8
K: G
d d g [I:setbarnb 1]| 
d d A | 
d d E/ G/ | 
A3 | 
d d g | 
d d A | 
A B E | 
GD2 |]

@@@ Tune index: 9053
